!!!ONB: MCCC : IJH0421_02 : Extracted Monophonic Melody
!!!COM: Haydn, Joseph
!!!OPR: String Quartet in C major
!!!OMV: 2
!!!SCT: Hob.III:65 ; Op.64 No.1
!!!ODT: 1790///
**kern
*thru
*>A
*clefG2
*k[]
*C:
*M3/4
4gg
4gg
=2
2.gg[
=3
4gg]
4aa
4ff
=4
4ff
4ee
4r
=5
4r
4dd
4dd
=6
2.dd
=7
8dd
8ee
8ff
8aa
8gg
8b
=8
4cc
4r
=9
*>A
4r
2r
=10
4r
4gg
4gg
=11
2.gg[
=12
4gg]
4aa
4ff
=13
4ff
4ee
4r
=14
4r
4dd
4dd
=15
2.dd
=16
8dd
8ee
8ff
8aa
8gg
8b
=17
4cc
4r
=18
*>B
8b
8cc
2r
=19
8dd
8ee
8ff
8aa
8gg
8b
=20
8cc
8dd
8ee
8aa
8gg
8cc
=21
8dd
8ee
8ff
8aa
8gg
8dd
=22
8ee
8ff#
8gg
8aa
8bb
8ccc
=23
2ddd
8ccc
8bb
=24
4aa
4aa
4aa
=25
4aa
4bb
4ff#
=26
4gg
4r
4gg
=27
4b
4r
4gg
=28
4cc
4r
4gg
=29
8ff#
8gg
8aa
8gg
8ff
8ee
=30
4dd
4r
4g
=31
4cc
4ee
4gg
=32
4ccc
4eee
16ddd
16ccc
16bb
16aa
=33
4gg
4gg
4gg#
=34
4gg#
4aa
4ff#
=35
4ff#
4gg
4ee
=36
4ee
4ff
4aa
=37
4aa
4ee
4ff
=38
4ff
4cc#
4dd
=39
2.cc
=40
8b
8cc
8dd
8ee
8ff
8gg
=41
2.ff
=42
4ee
4r
4eee
=43
4eee
4bb
4ccc
=44
4ccc
4gg#
4aa
=45
4ee
4ff
4cc#
=46
4dd
4ee
4ff
=47
2.cc
=48
2.f[
=49
4f]
4e
4f
=50
2.f#
=51
2g
4B
=52
4c
4r
4ff#
=53
4gg
4r
4b
=54
4cc
4r
=55
*>B
8b
8cc
2r
=56
8dd
8ee
8ff
8aa
8gg
8b
=57
8cc
8dd
8ee
8aa
8gg
8cc
=58
8dd
8ee
8ff
8aa
8gg
8dd
=59
8ee
8ff#
8gg
8aa
8bb
8ccc
=60
2ddd
8ccc
8bb
=61
4aa
4aa
4aa
=62
4aa
4bb
4ff#
=63
4gg
4r
4gg
=64
4b
4r
4gg
=65
4cc
4r
4gg
=66
8ff#
8gg
8aa
8gg
8ff
8ee
=67
4dd
4r
4g
=68
4cc
4ee
4gg
=69
4ccc
4eee
16ddd
16ccc
16bb
16aa
=70
4gg
4gg
4gg#
=71
4gg#
4aa
4ff#
=72
4ff#
4gg
4ee
=73
4ee
4ff
4aa
=74
4aa
4ee
4ff
=75
4ff
4cc#
4dd
=76
2.cc
=77
8b
8cc
8dd
8ee
8ff
8gg
=78
2.ff
=79
4ee
4r
4eee
=80
4eee
4bb
4ccc
=81
4ccc
4gg#
4aa
=82
4ee
4ff
4cc#
=83
4dd
4ee
4ff
=84
2.cc
=85
2.f[
=86
4f]
4e
4f
=87
2.f#
=88
2g
4B
=89
4c
4r
4ff#
=90
4gg
4r
4b
=91
4cc
4r
=92
*>C
*k[b-e-a-]
*c:
4r
2r
=93
2.r
=94
4r
4r
4gg
=95
4gg
4gg
4gg
=96
4ff
4ee-
4r
=97
2.r
=98
4r
4r
4e-
=99
4a-
4cc
4ee-
=100
4ff
4ee-
4e-
=101
4b-
4a-
4B-
=102
4a-
4g
4f
=103
4e-
4d
4f
=104
4e-
4r
4b-
=105
4a
4b-
4b
=106
4dd
4cc
8ff
8ee-
=107
8dd
8cc
8b-
8a-
8g
8f
=108
4e-
4r
=109
*>A
*k[]
*C:
4r
2r
=110
4r
4gg
4gg
=111
2.gg[
=112
4gg]
4aa
4ff
=113
4ff
4ee
4r
=114
4r
4dd
4dd
=115
2.dd
=116
8dd
8ee
8ff
8aa
8gg
8b
=117
4cc
4r
=118
*>A
4r
2r
=119
4r
4gg
4gg
=120
2.gg[
=121
4gg]
4aa
4ff
=122
4ff
4ee
4r
=123
4r
4dd
4dd
=124
2.dd
=125
8dd
8ee
8ff
8aa
8gg
8b
=126
4cc
4r
=127
*>B
8b
8cc
2r
=128
8dd
8ee
8ff
8aa
8gg
8b
=129
8cc
8dd
8ee
8aa
8gg
8cc
=130
8dd
8ee
8ff
8aa
8gg
8dd
=131
8ee
8ff#
8gg
8aa
8bb
8ccc
=132
2ddd
8ccc
8bb
=133
4aa
4aa
4aa
=134
4aa
4bb
4ff#
=135
4gg
4r
4gg
=136
4b
4r
4gg
=137
4cc
4r
4gg
=138
8ff#
8gg
8aa
8gg
8ff
8ee
=139
4dd
4r
4g
=140
4cc
4ee
4gg
=141
4ccc
4eee
16ddd
16ccc
16bb
16aa
=142
4gg
4gg
4gg#
=143
4gg#
4aa
4ff#
=144
4ff#
4gg
4ee
=145
4ee
4ff
4aa
=146
4aa
4ee
4ff
=147
4ff
4cc#
4dd
=148
2.cc
=149
8b
8cc
8dd
8ee
8ff
8gg
=150
2.ff
=151
4ee
4r
4eee
=152
4eee
4bb
4ccc
=153
4ccc
4gg#
4aa
=154
4ee
4ff
4cc#
=155
4dd
4ee
4ff
=156
2.cc
=157
2.f[
=158
4f]
4e
4f
=159
2.f#
=160
2g
4B
=161
4c
4r
4ff#
=162
4gg
4r
4b
=163
4cc
4r
=164
*>B
8b
8cc
2r
=165
8dd
8ee
8ff
8aa
8gg
8b
=166
8cc
8dd
8ee
8aa
8gg
8cc
=167
8dd
8ee
8ff
8aa
8gg
8dd
=168
8ee
8ff#
8gg
8aa
8bb
8ccc
=169
2ddd
8ccc
8bb
=170
4aa
4aa
4aa
=171
4aa
4bb
4ff#
=172
4gg
4r
4gg
=173
4b
4r
4gg
=174
4cc
4r
4gg
=175
8ff#
8gg
8aa
8gg
8ff
8ee
=176
4dd
4r
4g
=177
4cc
4ee
4gg
=178
4ccc
4eee
16ddd
16ccc
16bb
16aa
=179
4gg
4gg
4gg#
=180
4gg#
4aa
4ff#
=181
4ff#
4gg
4ee
=182
4ee
4ff
4aa
=183
4aa
4ee
4ff
=184
4ff
4cc#
4dd
=185
2.cc
=186
8b
8cc
8dd
8ee
8ff
8gg
=187
2.ff
=188
4ee
4r
4eee
=189
4eee
4bb
4ccc
=190
4ccc
4gg#
4aa
=191
4ee
4ff
4cc#
=192
4dd
4ee
4ff
=193
2.cc
=194
2.f[
=195
4f]
4e
4f
=196
2.f#
=197
2g
4B
=198
4c
4r
4ff#
=199
4gg
4r
4b
=200
4cc
4r
=201
*>C
*k[b-e-a-]
*c:
4r
2r
=202
2.r
=203
4r
4r
4gg
=204
4gg
4gg
4gg
=205
4ff
4ee-
4r
=206
2.r
=207
4r
4r
4e-
=208
4a-
4cc
4ee-
=209
4ff
4ee-
4e-
=210
4b-
4a-
4B-
=211
4a-
4g
4f
=212
4e-
4d
4f
=213
4e-
4r
4b-
=214
4a
4b-
4b
=215
4dd
4cc
8ff
8ee-
=216
8dd
8cc
8b-
8a-
8g
8f
=217
4e-
4r
=218
*>D
4r
2r
=219
4r
4r
4a-
=220
2g
8cc
8g-
=221
2f
8b-
8f
=222
4e-
4e-
8a-
8e-
=223
2d
4e-
=224
4d
4g
4f#
=225
4a
4g
4b
=226
4cc
4b
4g
=227
4cc
4ee-
4gg
=228
4aa-
4gg
4ddd
=229
4ddd
4ddd
4ddd
=230
4bb
4ccc
4r
=231
2.ff#
=232
2.ff
=233
4ee-
4e-
4d
=234
4c
4r
4g
=235
4a-
4g
4cc
=236
4b-
4a-
4g
=237
4g
4f
4e-
=238
8d
8e-
8e
8f
8f#
8g
=239
4a-
4g
4B
=240
4c
4r
=241
*>D
4r
2r
=242
4r
4r
4a-
=243
2g
8cc
8g-
=244
2f
8b-
8f
=245
4e-
4e-
8a-
8e-
=246
2d
4e-
=247
4d
4g
4f#
=248
4a
4g
4b
=249
4cc
4b
4g
=250
4cc
4ee-
4gg
=251
4aa-
4gg
4ddd
=252
4ddd
4ddd
4ddd
=253
4bb
4ccc
4r
=254
2.ff#
=255
2.ff
=256
4ee-
4e-
4d
=257
4c
4r
4g
=258
4a-
4g
4cc
=259
4b-
4a-
4g
=260
4g
4f
4e-
=261
8d
8e-
8e
8f
8f#
8g
=262
4a-
4g
4B
=263
4c
4r
==
*-
